X: 2306
T: Bad Turn, The
R: polka
M: 2/4
K: Dmajor
|:F/E/D F/E/D|F/E/D/F/ A/F/D|F/E/D/F/ A/B/A/D/|FE EA/G/|
F/E/D F/E/D|F/E/D/F/ A/F/D|F/E/D/F/ A/B/A/F/|ED D2:|
|:f/e/d e/d/c|d/c/B A/F/D|f/e/d e/d/c/e/|Aa a2|
f/e/d e/d/c|d/c/B A/F/D|D/E/F/G/ A/B/A/F/|ED D2:|

